public/img/intro/blur.svg

<svg width="249" height="222" viewBox="0 0 249 222" fill="none" xmlns="http://www.w3.org/2000/svg">
<path d="M124.5 0.222168L126.605 51.3094C127.893 82.5644 155.78 107.63 190.535 108.773L249 110.694L190.535 112.616C155.78 113.759 127.893 138.824 126.605 170.079L124.5 221.167L122.395 170.079C121.107 138.824 93.2202 113.759 58.4655 112.616L0 110.694L58.4655 108.773C93.2202 107.63 121.107 82.5644 122.395 51.3094L124.5 0.222168Z" fill="#ECECEC"/>
<path d="M185.92 15.0226L159.34 60.2121C143.078 87.8589 153.293 122.106 182.756 138.723L232.32 166.677L180.619 142.052C149.885 127.413 111.799 136.581 93.3066 163.07L63.08 206.366L89.66 161.177C105.922 133.53 95.7073 99.2827 66.244 82.6656L16.6798 54.7118L68.3809 79.337C99.1145 93.9754 137.201 84.8071 155.693 58.3187L185.92 15.0226Z" fill="#ECECEC"/>
<path d="M230.883 55.4583L182.739 82.6416C153.285 99.2723 143.091 133.524 159.368 161.163L186.75 207.659L155.667 163.085C137.189 136.588 99.1081 127.402 68.3661 142.027L18.1174 165.93L66.2607 138.747C95.7146 122.116 105.909 87.8648 89.6321 60.2254L62.25 13.7298L93.3333 58.3037C111.811 84.8006 149.892 93.9865 180.634 79.3622L230.883 55.4583Z" fill="#ECECEC"/>
</svg>

<svg width="249" height="222" fill="none" xmlns="http://www.w3.org/2000/svg"><path d="M124.5.222l2.105 51.087c1.288 31.255 29.175 56.321 63.93 57.464L249 110.694l-58.465 1.922c-34.755 1.143-62.642 26.208-63.93 57.463l-2.105 51.088-2.105-51.088c-1.288-31.255-29.175-56.32-63.93-57.463L0 110.694l58.465-1.921c34.755-1.143 62.642-26.209 63.93-57.464L124.5.222z" fill="#ECECEC"/><path d="M185.92 15.023l-26.58 45.19c-16.262 27.646-6.047 61.893 23.416 78.51l49.564 27.954-51.701-24.625c-30.734-14.639-68.82-5.471-87.312 21.018L63.08 206.366l26.58-45.189c16.262-27.647 6.047-61.894-23.416-78.511L16.68 54.712l51.7 24.625c30.735 14.638 68.821 5.47 87.313-21.018l30.227-43.296z" fill="#ECECEC"/><path d="M230.883 55.458l-48.144 27.184c-29.454 16.63-39.648 50.882-23.371 78.521l27.382 46.496-31.083-44.574c-18.478-26.497-56.559-35.683-87.3-21.058l-50.25 23.903 48.144-27.183c29.454-16.631 39.648-50.882 23.371-78.522L62.25 13.73l31.083 44.574c18.478 26.497 56.559 35.683 87.301 21.058l50.249-23.904z" fill="#ECECEC"/></svg>
